X: 1
T: The Old
R: polka
M: 2/4
L: 1/8
K: Dmaj
F/A/|BA A/>f/e/>d/|cB Be/d/|c/>d/e/>f/ gB/c/|d/>e/f/>d/ AF/A/|
BA A/>f/e/>d/|cB Be/d/|c/>d/e/>f/ g/>e/B/>c/|dd d:|
f/g/|a/>f/d/>f/ A/>f/d/>f/|ag/f/ ge/f/|g/>e/c/>e/ A/>e/c/>e/|
gf/e/ ff/g/|a/>f/d/>f/ A/>f/d/>f/|ag Be/d/|c/>d/e//>e/>f/ g/>e/B/>c/|
dd d||

